src/Stylish/16/actions/edit.svg

<?xml version="1.0" encoding="UTF-8" standalone="no"?>
<svg
   width="16"
   height="16"
   version="1.1"
   id="svg2"
   sodipodi:docname="edit.svg"
   inkscape:version="1.4.2 (ebf0e940d0, 2025-05-08)"
   xmlns:inkscape="http://www.inkscape.org/namespaces/inkscape"
   xmlns:sodipodi="http://sodipodi.sourceforge.net/DTD/sodipodi-0.dtd"
   xmlns="http://www.w3.org/2000/svg"
   xmlns:svg="http://www.w3.org/2000/svg">
  <defs
     id="defs2">
     <style
        id="current-color-scheme"
        type="text/css">
        .ColorScheme-Text { color:#363636; }
        .ColorScheme-NeutralText { color:#f67400; }
        .ColorScheme-PositiveText { color:#37c837; }
        .ColorScheme-NegativeText { color:#f44336; }
        .ColorScheme-Highlight { color:#3daee9; }
     </style>
  </defs>
  <sodipodi:namedview
     id="namedview2"
     pagecolor="#ffffff"
     bordercolor="#000000"
     borderopacity="0.25"
     inkscape:showpageshadow="2"
     inkscape:pageopacity="0.0"
     inkscape:pagecheckerboard="0"
     inkscape:deskcolor="#d1d1d1"
     inkscape:zoom="49.75"
     inkscape:cx="7.9899497"
     inkscape:cy="8"
     inkscape:window-width="1920"
     inkscape:window-height="1011"
     inkscape:window-x="0"
     inkscape:window-y="0"
     inkscape:window-maximized="1"
     inkscape:current-layer="svg2" />
  <path
     id="path1"
     style="fill:currentColor"
     class="ColorScheme-Text"
     d="M 10.410156 0.59765625 A 0.50005 0.50005 0 0 0 10.048828 0.765625 L 1.9882812 9.8183594 A 0.50005 0.50005 0 0 0 1.8671875 10.082031 L 1.21875 14.748047 A 0.50005 0.50005 0 0 0 1.8398438 15.300781 L 6.3007812 14.148438 A 0.50005 0.50005 0 0 0 6.5507812 13.994141 L 14.667969 4.7988281 A 0.50005 0.50005 0 0 0 14.773438 4.328125 C 14.505527 3.403455 13.887641 2.5463 13.119141 1.875 C 12.350641 1.20369 11.425716 0.7118625 10.478516 0.6015625 A 0.50005 0.50005 0 0 0 10.410156 0.59765625 z M 10.5625 1.6933594 C 11.18667 1.8165994 11.875737 2.1176962 12.460938 2.6289062 C 13.042998 3.1373562 13.446094 3.7889031 13.677734 4.4082031 L 5.9023438 13.216797 L 2.3125 14.144531 L 2.8359375 10.371094 L 10.5625 1.6933594 z " />
  <path
     id="path2"
     style="fill:currentColor"
     class="ColorScheme-Text"
     d="M 2.6582031 9.3046875 A 0.5 0.5 0 0 0 2.1738281 9.6738281 A 0.5 0.5 0 0 0 2.5234375 10.287109 C 3.0638675 10.434359 3.9249406 10.984384 4.6191406 11.621094 C 5.3133606 12.257794 5.8486094 13.039972 5.9121094 13.326172 A 0.5 0.5 0 0 0 6.5078125 13.705078 A 0.5 0.5 0 0 0 6.8886719 13.109375 C 6.7160019 12.331205 6.0682519 11.593966 5.2949219 10.884766 C 4.5216419 10.175566 3.6290094 9.5516656 2.7871094 9.3222656 A 0.5 0.5 0 0 0 2.6582031 9.3046875 z " />
</svg>

<svg width="16" height="16" version="1.1" xmlns="http://www.w3.org/2000/svg">
 <path d="m10.479 0.60156a0.50005 0.50005 0 0 0-0.42969 0.16406l-8.0605 9.0527a0.50005 0.50005 0 0 0-0.12109 0.26367l-0.64844 4.666a0.50005 0.50005 0 0 0 0.62109 0.55273l4.4609-1.1523a0.50005 0.50005 0 0 0 0.25-0.1543l8.1172-9.1953a0.50005 0.50005 0 0 0 0.10547-0.4707c-0.26791-0.92467-0.8858-1.7818-1.6543-2.4531-0.7685-0.67131-1.6934-1.1631-2.6406-1.2734zm0.08398 1.0918c0.62417 0.12324 1.3132 0.42434 1.8984 0.93555 0.58206 0.50845 0.98516 1.16 1.2168 1.7793l-7.7754 8.8086-3.5898 0.92773 0.52344-3.7734z" color="#000000" fill="#363636" stroke-linecap="round" stroke-linejoin="round" style="-inkscape-stroke:none"/>
 <path d="m2.7871 9.3223a0.5 0.5 0 0 0-0.61328 0.35156 0.5 0.5 0 0 0 0.34961 0.61328c0.54043 0.14725 1.4015 0.69729 2.0957 1.334 0.69422 0.6367 1.2295 1.4189 1.293 1.7051a0.5 0.5 0 0 0 0.5957 0.37891 0.5 0.5 0 0 0 0.38086-0.5957c-0.17267-0.77817-0.82047-1.5154-1.5938-2.2246-0.77328-0.7092-1.6659-1.3331-2.5078-1.5625z" color="#000000" fill="#363636" stroke-linecap="round" stroke-linejoin="round" style="-inkscape-stroke:none"/>
</svg>
